X:1
T:Title
%%score { ( 1 4 ) | ( 2 3 ) }
L:1/8
M:6/4
K:A
V:1 bass nm="Grand Piano"
V:4 bass 
V:2 bass 
V:3 bass 
V:1
 z6 z4[Q:1/4=105] [E,A,C][E,B,D] | [A,CE]4 [A,CE]2 .[G,DE]4[K:treble] [DE]2 | [EA]6- [EA]4 [EA]B | %3
 c4 c2 c2 B2 A2 |[M:5/4] B2- B2- B6 |[M:1/4] [^Ec][CEB] |[M:6/4] [CFA]4 [CFA]2 ^E2- [EB]2 [A,FA]2 | %7
 [A,DF]6- [A,DF]4 [G,=CG][A,CF] | [A,CE]4 [A,E]2 .[G,DE]4 [G,DE]2 | %9
[M:5/4] [A,CE]2- [A,CE]2- [A,CE]6 |] %10
V:2
 z6 z4 A,,A,, | A,,4 A,,2 z2 F2 [B,,G,]2 | [C,A,]6- [C,A,]4 [C,A,][E,G,E] | %3
 [A,E]4 [A,E]2 E2- [G,B,E]2 [F,B,^D]2 |[M:5/4] [E,G,E]2- [E,G,E]2- [E,G,E]6 |[M:1/4] [C,G,]C, | %6
[M:6/4] F,4 F,2 z2 G,2 C,2 | D,6- D,4 ^D,D, | E,4 C,2 z2 F2 B,,2 |[M:5/4] A,,2- A,,2- A,,6 |] %10
V:3
 x12 | z6 .B,,6 | x12 | z6 .A,6 |[M:5/4] x10 |[M:1/4] x2 |[M:6/4] z6 .C,6 | x12 | z6 .B,,6 | %9
[M:5/4] x10 |] %10
V:4
 x12 | x10[K:treble] x2 | x12 | x12 |[M:5/4] x10 |[M:1/4] x2 |[M:6/4] z6 .[A,A]6 | x12 | x12 | %9
[M:5/4] x10 |] %10

